assets/img/tick-square2.svg

<svg width="118" height="117" viewBox="0 0 118 117" fill="none" xmlns="http://www.w3.org/2000/svg">
<path fill-rule="evenodd" clip-rule="evenodd" d="M37.6862 17.0625C25.247 17.0625 17.2083 25.5109 17.2083 38.5905V78.4095C17.2083 91.4891 25.247 99.9375 37.6862 99.9375H80.3038C92.7479 99.9375 100.792 91.4891 100.792 78.4095V38.5905C100.792 25.5109 92.7479 17.0625 80.3087 17.0625H37.6862ZM80.3038 107.25H37.6862C21.0236 107.25 9.83325 95.6572 9.83325 78.4095V38.5905C9.83325 21.3427 21.0236 9.75 37.6862 9.75H80.3087C96.9713 9.75 108.167 21.3427 108.167 38.5905V78.4095C108.167 95.6572 96.9713 107.25 80.3038 107.25Z" fill="#FA7353"/>
<path fill-rule="evenodd" clip-rule="evenodd" d="M53.1663 73.7244C52.2272 73.7244 51.2783 73.3685 50.5605 72.6519L38.8883 61.0835C37.4477 59.6551 37.4477 57.3444 38.8883 55.916C40.3289 54.4876 42.6594 54.4876 44.1 55.916L53.1663 64.8958L73.895 44.3476C75.3356 42.9193 77.666 42.9193 79.1066 44.3476C80.5472 45.776 80.5472 48.0868 79.1066 49.5151L55.7721 72.6519C55.0543 73.3685 54.1103 73.7244 53.1663 73.7244Z" fill="#FA7353"/>
</svg>

<svg xmlns="http://www.w3.org/2000/svg" width="118" height="117" fill="none"><path fill="#FA7353" fill-rule="evenodd" d="M37.686 17.063c-12.439 0-20.478 8.448-20.478 21.528v39.818c0 13.08 8.039 21.528 20.478 21.528h42.618c12.444 0 20.488-8.448 20.488-21.528V38.59c0-13.08-8.044-21.528-20.483-21.528zm42.618 90.187H37.686c-16.662 0-27.853-11.593-27.853-28.84V38.59c0-17.247 11.19-28.84 27.853-28.84H80.31c16.662 0 27.858 11.593 27.858 28.84v39.82c0 17.247-11.196 28.84-27.863 28.84" clip-rule="evenodd"/><path fill="#FA7353" fill-rule="evenodd" d="M53.166 73.724c-.939 0-1.888-.356-2.605-1.072L38.887 61.084a3.63 3.63 0 0 1 0-5.168 3.705 3.705 0 0 1 5.212 0l9.066 8.98 20.729-20.548a3.705 3.705 0 0 1 5.212 0 3.63 3.63 0 0 1 0 5.167L55.772 72.652a3.67 3.67 0 0 1-2.606 1.072" clip-rule="evenodd"/></svg>
